resources/icons/16px/draw.svg

<svg xmlns="http://www.w3.org/2000/svg" viewBox="0 0 16 16">
  <path d="M14.9 11c-.3 0-.5.1-.7.3l-3 3c-.2.2-.3.4-.3.7 0 .6.5 1 1 1 .3 0 .5-.1.7-.3l3-3c.2-.2.3-.4.3-.7 0-.5-.4-1-1-1m-1-1v-.2l-1-5c-.1-.3-.3-.6-.6-.7l-11-4-.3.3 5.8 5.8c.2-.1.4-.2.6-.2.8 0 1.5.7 1.5 1.5S8.3 9 7.4 9s-1.5-.7-1.5-1.5c0-.2.1-.4.2-.6L.3 1.1l-.3.3 4 11c.1.3.4.6.7.6l5 1h.2c.3 0 .5-.1.7-.3l3-3c.2-.2.3-.4.3-.7"/>
</svg>

<?xml version="1.0" encoding="utf-8"?>
<!-- Generator: Adobe Illustrator 17.1.0, SVG Export Plug-In . SVG Version: 6.00 Build 0)  -->
<!DOCTYPE svg PUBLIC "-//W3C//DTD SVG 1.1//EN" "http://www.w3.org/Graphics/SVG/1.1/DTD/svg11.dtd">
<svg version="1.1" id="Layer_1" xmlns:sketch="http://www.bohemiancoding.com/sketch/ns"
	 xmlns="http://www.w3.org/2000/svg" xmlns:xlink="http://www.w3.org/1999/xlink" x="0px" y="0px" viewBox="0 0 16 16"
	 enable-background="new 0 0 16 16" xml:space="preserve">
<title>Shape</title>
<desc>Created with Sketch.</desc>
<g id="Page-1" sketch:type="MSPage">
	<g id="Artboard-1" sketch:type="MSArtboardGroup">
		<path id="Shape" sketch:type="MSShapeGroup" d="M14.9,11c-0.3,0-0.5,0.1-0.7,0.3l-3,3c-0.2,0.2-0.3,0.4-0.3,0.7c0,0.6,0.5,1,1,1
			c0.3,0,0.5-0.1,0.7-0.3l3-3c0.2-0.2,0.3-0.4,0.3-0.7C15.9,11.5,15.5,11,14.9,11L14.9,11z M13.9,10c0-0.1,0-0.1,0-0.2l0,0l-1-5l0,0
			c-0.1-0.3-0.3-0.6-0.6-0.7l0,0l-11-4L1,0.4l5.8,5.8C7,6.1,7.2,6,7.4,6c0.8,0,1.5,0.7,1.5,1.5S8.3,9,7.4,9S5.9,8.3,5.9,7.5
			c0-0.2,0.1-0.4,0.2-0.6L0.3,1.1L0,1.4l4,11l0,0C4.1,12.7,4.4,13,4.7,13l0,0l5,1l0,0c0.1,0,0.1,0,0.2,0c0.3,0,0.5-0.1,0.7-0.3l3-3
			C13.8,10.5,13.9,10.3,13.9,10L13.9,10z"/>
	</g>
</g>
</svg>
